X:125
M:6/8
L:1/8
Q:3/8=100
K:A
E|AGA BAB|cBA B2 B|cBc FBA|GEE E2 E|\
|:c|def fed|cde edc|dcd FBA|GEE E2 c|\
def fed|cde edc|dcd Bed|cAA A2:|
K:C
|:B|cBA cBA|BEE E2 B|cBA d2 c|{c}B3 ABc|\
cBA cBA|B2 E E2 a|edc BA^G|A3-A2:|
|:c/d/|e2 e efe|d2 zzAB|c2 c cdc|B2 zzAB|\
cBA edc|a^ga afd|edc BA^G|A3-A2:|

